src/lib/packages/icons/src/assets/filled/filter.svg

<svg width="24" height="24" viewBox="0 0 24 24" fill="none" xmlns="http://www.w3.org/2000/svg">
<path d="M5.5 3H18.5C19.328 3 20 3.672 20 4.5V6.75699C20 7.15499 19.842 7.53599 19.561 7.81799L14.4399 12.939C14.1589 13.22 14.001 13.602 14.001 14V21L10.001 18V14C10.001 13.602 9.84302 13.221 9.56202 12.939L4.44104 7.81799C4.16004 7.53699 4.00196 7.15499 4.00196 6.75699V4.5C3.99996 3.672 4.672 3 5.5 3Z" fill="currentColor"/>
</svg>

<svg xmlns="http://www.w3.org/2000/svg" width="24" height="24" fill="none"><path fill="currentColor" d="M5.5 3h13A1.5 1.5 0 0 1 20 4.5v2.257c0 .398-.158.779-.439 1.061l-5.121 5.121A1.5 1.5 0 0 0 14 14v7l-4-3v-4c0-.398-.158-.779-.439-1.061l-5.12-5.121a1.501 1.501 0 0 1-.439-1.061V4.5C4 3.672 4.672 3 5.5 3Z"/></svg>
